symbols/web/hive/materialsymbolsrounded/hive_wght300gradN25fill1_40px.svg

<svg xmlns="http://www.w3.org/2000/svg" height="40" width="40"><path d="M27.833 19.375q-.375 0-.75-.229t-.541-.521l-2.125-3.5q-.167-.292-.167-.729 0-.438.167-.771l2.125-3.5q.166-.292.541-.5.375-.208.75-.208h3.75q.334 0 .709.208.375.208.583.5l2.042 3.5q.208.333.208.771 0 .437-.208.729l-2.042 3.5q-.208.292-.583.521-.375.229-.709.229ZM18.208 25q-.375 0-.729-.208-.354-.209-.562-.542l-2.042-3.542q-.208-.291-.208-.708t.208-.75l2.042-3.542q.208-.291.562-.5.354-.208.729-.208h3.667q.375 0 .729.208.354.209.563.5l2.083 3.542q.167.333.167.75t-.167.708l-2.083 3.542q-.209.333-.563.542-.354.208-.729.208Zm0-11.25q-.375 0-.729-.208-.354-.209-.562-.5L14.833 9.5q-.166-.292-.166-.729 0-.438.166-.729l2.084-3.5q.208-.292.562-.521.354-.229.729-.229h3.667q.375 0 .729.229t.563.521l2.083 3.5q.167.291.167.729 0 .437-.167.729l-2.083 3.542q-.209.291-.563.5-.354.208-.729.208ZM8.5 19.375q-.375 0-.729-.229t-.563-.521l-2.041-3.5q-.209-.333-.209-.75t.209-.75l2.041-3.5q.209-.292.563-.5.354-.208.729-.208h3.75q.375 0 .729.208t.563.5l2.083 3.5q.167.333.167.771 0 .437-.167.729l-2.083 3.5q-.209.292-.563.521-.354.229-.729.229Zm0 11.208q-.375 0-.729-.208t-.563-.542l-2.041-3.5q-.209-.291-.209-.729 0-.437.209-.729l2.041-3.5q.209-.292.563-.521.354-.229.729-.229h3.75q.375 0 .729.229t.563.521l2.083 3.5q.167.292.167.729 0 .438-.167.729l-2.083 3.5q-.209.334-.563.542-.354.208-.729.208Zm9.708 5.625q-.375 0-.729-.229t-.562-.521l-2.084-3.5q-.166-.291-.166-.729 0-.437.166-.729l2.084-3.542q.208-.291.562-.52.354-.23.729-.23h3.667q.375 0 .729.23.354.229.563.52L25.25 30.5q.167.292.167.729 0 .438-.167.729l-2.083 3.5q-.209.292-.563.521-.354.229-.729.229Zm9.625-5.625q-.375 0-.75-.208t-.541-.542l-2.125-3.5q-.167-.291-.167-.729 0-.437.167-.729l2.125-3.542q.166-.25.541-.479.375-.229.75-.229h3.75q.334 0 .709.229.375.229.583.521l2.042 3.5q.208.292.208.729 0 .438-.208.729l-2.042 3.5q-.208.334-.583.542-.375.208-.709.208Z"/></svg>

<svg xmlns="http://www.w3.org/2000/svg" height="40" width="40"><path d="M27.833 19.375Q27.458 19.375 27.083 19.146Q26.708 18.917 26.542 18.625L24.417 15.125Q24.25 14.833 24.25 14.396Q24.25 13.958 24.417 13.625L26.542 10.125Q26.708 9.833 27.083 9.625Q27.458 9.417 27.833 9.417H31.583Q31.917 9.417 32.292 9.625Q32.667 9.833 32.875 10.125L34.917 13.625Q35.125 13.958 35.125 14.396Q35.125 14.833 34.917 15.125L32.875 18.625Q32.667 18.917 32.292 19.146Q31.917 19.375 31.583 19.375ZM18.208 25Q17.833 25 17.479 24.792Q17.125 24.583 16.917 24.25L14.875 20.708Q14.667 20.417 14.667 20Q14.667 19.583 14.875 19.25L16.917 15.708Q17.125 15.417 17.479 15.208Q17.833 15 18.208 15H21.875Q22.25 15 22.604 15.208Q22.958 15.417 23.167 15.708L25.25 19.25Q25.417 19.583 25.417 20Q25.417 20.417 25.25 20.708L23.167 24.25Q22.958 24.583 22.604 24.792Q22.25 25 21.875 25ZM18.208 13.75Q17.833 13.75 17.479 13.542Q17.125 13.333 16.917 13.042L14.833 9.5Q14.667 9.208 14.667 8.771Q14.667 8.333 14.833 8.042L16.917 4.542Q17.125 4.25 17.479 4.021Q17.833 3.792 18.208 3.792H21.875Q22.25 3.792 22.604 4.021Q22.958 4.25 23.167 4.542L25.25 8.042Q25.417 8.333 25.417 8.771Q25.417 9.208 25.25 9.5L23.167 13.042Q22.958 13.333 22.604 13.542Q22.25 13.75 21.875 13.75ZM8.5 19.375Q8.125 19.375 7.771 19.146Q7.417 18.917 7.208 18.625L5.167 15.125Q4.958 14.792 4.958 14.375Q4.958 13.958 5.167 13.625L7.208 10.125Q7.417 9.833 7.771 9.625Q8.125 9.417 8.5 9.417H12.25Q12.625 9.417 12.979 9.625Q13.333 9.833 13.542 10.125L15.625 13.625Q15.792 13.958 15.792 14.396Q15.792 14.833 15.625 15.125L13.542 18.625Q13.333 18.917 12.979 19.146Q12.625 19.375 12.25 19.375ZM8.5 30.583Q8.125 30.583 7.771 30.375Q7.417 30.167 7.208 29.833L5.167 26.333Q4.958 26.042 4.958 25.604Q4.958 25.167 5.167 24.875L7.208 21.375Q7.417 21.083 7.771 20.854Q8.125 20.625 8.5 20.625H12.25Q12.625 20.625 12.979 20.854Q13.333 21.083 13.542 21.375L15.625 24.875Q15.792 25.167 15.792 25.604Q15.792 26.042 15.625 26.333L13.542 29.833Q13.333 30.167 12.979 30.375Q12.625 30.583 12.25 30.583ZM18.208 36.208Q17.833 36.208 17.479 35.979Q17.125 35.75 16.917 35.458L14.833 31.958Q14.667 31.667 14.667 31.229Q14.667 30.792 14.833 30.5L16.917 26.958Q17.125 26.667 17.479 26.438Q17.833 26.208 18.208 26.208H21.875Q22.25 26.208 22.604 26.438Q22.958 26.667 23.167 26.958L25.25 30.5Q25.417 30.792 25.417 31.229Q25.417 31.667 25.25 31.958L23.167 35.458Q22.958 35.75 22.604 35.979Q22.25 36.208 21.875 36.208ZM27.833 30.583Q27.458 30.583 27.083 30.375Q26.708 30.167 26.542 29.833L24.417 26.333Q24.25 26.042 24.25 25.604Q24.25 25.167 24.417 24.875L26.542 21.333Q26.708 21.083 27.083 20.854Q27.458 20.625 27.833 20.625H31.583Q31.917 20.625 32.292 20.854Q32.667 21.083 32.875 21.375L34.917 24.875Q35.125 25.167 35.125 25.604Q35.125 26.042 34.917 26.333L32.875 29.833Q32.667 30.167 32.292 30.375Q31.917 30.583 31.583 30.583Z"/></svg>
